src/Icon/svgs/phone.svg

<svg width="24" height="24" viewBox="0 0 24 24" fill="none" xmlns="http://www.w3.org/2000/svg">
<path fill-rule="evenodd" clip-rule="evenodd" d="M4.33789 11.4115C2.56219 9.63431 2.55305 6.75755 4.31657 4.96967L5.92019 3.34625C6.35726 2.90461 7.08216 2.897 7.52837 3.3295L10.5879 6.29763C11.0463 6.7408 11.0524 7.47331 10.6016 7.92561L7.89843 10.6288L13.4448 16.0335L16.0993 13.4339C16.5455 12.9953 17.2627 12.9999 17.7059 13.4431L20.6649 16.4021C21.1111 16.8468 21.1111 17.5671 20.668 18.0148L19.0491 19.6428C17.2673 21.4353 14.3662 21.4398 12.5783 19.6519L4.33789 11.4115Z" fill="#1B1C1D"/>
</svg>

<svg xmlns="http://www.w3.org/2000/svg" width="24" height="24" fill="none"  xmlns:v="https://vecta.io/nano"><path fill-rule="evenodd" d="M4.338 11.412C2.562 9.634 2.553 6.758 4.317 4.97L5.92 3.346a1.15 1.15 0 0 1 1.608-.017l3.06 2.968c.458.443.465 1.176.014 1.628l-2.703 2.703 5.546 5.405 2.654-2.6a1.14 1.14 0 0 1 1.607.009l2.959 2.959a1.14 1.14 0 0 1 .003 1.613l-1.619 1.628a4.57 4.57 0 0 1-6.471.009l-8.24-8.24z" fill="#1b1c1d"/></svg>
